X:21
T:21 The Bohemian Polka
C:Michael Turner's MS
R:Play as ABACA
I:abc2nwc
M:2/4
L:1/16
K:G
"A"G2D2 B2AG|F2A2 D4|G2D2 c2BA|d4g2 z2|
G2D2 B2AG|F2A2 D4|G2D2 c2BA|G2GG G2 z2:|
"B"e2c2 g2fe|d2g2 B4|c2A2 e2dc|B2d2 G4|
e2c2 g2fe|d2g2 B4|A2Ad ^c2ce|d2fe dBcA:|
K:C
"C"c4A2B2|G2GA F2FG|F2A2 c2e2|d4g4|
c4A2B2|G2GA F2FG|E2G2 c2e2|d4c2 z2:|

